X: 1
T: Christmas In America
R: reel
M: 4/4
L: 1/8
K: Gmaj
(3DEF|:G2 BG EDB,E|DEGB AE E2|D2 B,D GABd|g2 fg edBA|
GABG EDB,E|DEGB AGEG|DEGA Bdeg|dBcA G2 z:|
|:Bd|(3gbg fg edBd|gfga bgab|gagd edge|d3B AGEG|
g2 fg edBd|g3a bgab|gbag edge|dBcA G2 :|

composer: Brendan Tonra
